suite-common/icons/assets/icons/externalLink.svg

<svg xmlns="http://www.w3.org/2000/svg" viewBox="0 0 24 24">
  <path fill-rule="evenodd" d="M7.8 4.04c-.932.03-1.097.059-1.637.295a3.2 3.2 0 0 0-1.066.722 3.8 3.8 0 0 0-.988 1.695c-.087.308-.087.315-.1 5.243l-.012 4.936.128.384c.256.768.464 1.123.934 1.588.48.476.906.73 1.609.96l.417.137 4.567-.001c2.558 0 4.772-.017 5.03-.039.747-.061 1.261-.26 1.876-.724.641-.483 1.052-1.09 1.309-1.936l.11-.36.014-2.434.014-2.434-.132-.22a.89.89 0 0 0-1.565.044c-.087.162-.088.197-.113 2.504-.014 1.319-.043 2.403-.065 2.485-.169.622-.791 1.181-1.425 1.28-.151.023-2.056.034-4.886.027L7.18 18.18l-.311-.149a1.82 1.82 0 0 1-.892-.889l-.157-.318V7.18l.132-.278c.171-.362.357-.585.661-.791.412-.28.379-.276 2.967-.298 2.196-.019 2.329-.024 2.486-.098.578-.272.716-.975.282-1.428a1 1 0 0 0-.228-.185c-.123-.064-3.002-.105-4.32-.062m7.416-.005c-.355.022-.423.038-.567.138-.247.172-.373.38-.396.654-.017.2-.003.264.094.453a.88.88 0 0 0 .641.484c.105.017.587.032 1.07.034l.878.002-2.721 2.73c-1.497 1.502-2.801 2.837-2.898 2.967-.164.22-.177.255-.176.48 0 .194.023.283.112.435.228.389.603.541 1.017.41.209-.066.341-.191 3.054-2.891 1.56-1.553 2.838-2.816 2.841-2.807.002.009.017.457.032.996.026.881.037.996.112 1.14.15.289.402.453.746.486.17.017.242.001.425-.093a.89.89 0 0 0 .5-.743c.014-.137.02-1.15.012-2.25-.011-1.518-.027-2.029-.066-2.12-.07-.163-.192-.288-.403-.412l-.177-.104-1.863-.007a65 65 0 0 0-2.267.018"/>
</svg>

<svg xmlns="http://www.w3.org/2000/svg" viewBox="0 0 24 24"><path d="M7.800 4.040 C 6.868 4.070,6.703 4.099,6.163 4.335 C 5.729 4.523,5.421 4.732,5.097 5.057 C 4.623 5.531,4.294 6.096,4.109 6.752 C 4.022 7.060,4.022 7.067,4.009 11.995 L 3.997 16.931 4.125 17.315 C 4.381 18.083,4.589 18.438,5.059 18.903 C 5.539 19.379,5.965 19.633,6.668 19.863 L 7.085 20.000 11.652 19.999 C 14.210 19.999,16.424 19.982,16.682 19.960 C 17.429 19.899,17.943 19.700,18.558 19.236 C 19.199 18.753,19.610 18.146,19.867 17.300 L 19.977 16.940 19.991 14.506 L 20.005 12.072 19.873 11.852 C 19.503 11.239,18.646 11.263,18.308 11.896 C 18.221 12.058,18.220 12.093,18.195 14.400 C 18.181 15.719,18.152 16.803,18.130 16.885 C 17.961 17.507,17.339 18.066,16.705 18.165 C 16.554 18.188,14.649 18.199,11.819 18.192 L 7.180 18.180 6.869 18.031 C 6.461 17.836,6.184 17.560,5.977 17.142 L 5.820 16.824 5.820 12.002 L 5.820 7.180 5.952 6.902 C 6.123 6.540,6.309 6.317,6.613 6.111 C 7.025 5.831,6.992 5.835,9.580 5.813 C 11.776 5.794,11.909 5.789,12.066 5.715 C 12.644 5.443,12.782 4.740,12.348 4.287 C 12.278 4.213,12.175 4.130,12.120 4.102 C 11.997 4.038,9.118 3.997,7.800 4.040 M15.216 4.035 C 14.861 4.057,14.793 4.073,14.649 4.173 C 14.402 4.345,14.276 4.553,14.253 4.827 C 14.236 5.027,14.250 5.091,14.347 5.280 C 14.483 5.544,14.714 5.719,14.988 5.764 C 15.093 5.781,15.575 5.796,16.058 5.798 L 16.936 5.800 14.215 8.530 C 12.718 10.032,11.414 11.367,11.317 11.497 C 11.153 11.717,11.140 11.752,11.141 11.977 C 11.141 12.171,11.164 12.260,11.253 12.412 C 11.481 12.801,11.856 12.953,12.270 12.822 C 12.479 12.756,12.611 12.631,15.324 9.931 C 16.884 8.378,18.162 7.115,18.165 7.124 C 18.167 7.133,18.182 7.581,18.197 8.120 C 18.223 9.001,18.234 9.116,18.309 9.260 C 18.459 9.549,18.711 9.713,19.055 9.746 C 19.225 9.763,19.297 9.747,19.480 9.653 C 19.778 9.500,19.944 9.253,19.980 8.910 C 19.994 8.773,20.000 7.760,19.992 6.660 C 19.981 5.142,19.965 4.631,19.926 4.540 C 19.856 4.377,19.734 4.252,19.523 4.128 L 19.346 4.024 17.483 4.017 C 16.458 4.013,15.438 4.021,15.216 4.035 " stroke="none" fill-rule="evenodd" fill="black"></path></svg>
